X: 1
T: String Quartet in D Major opus 17 no 6 mvt 2
C: Franz Joseph Haydn
%%abc-version 2.0
%%abcx-abcm2ps-target-version 5.9.1 (29 Sep 2008)
%%abc-creator hum2abc beta
%%abcx-conversion-date 2021/02/14 14:38:13
%%abc-copyright Copyright (c) 1994, 2000 Center for Computer Assisted Research in the Humanities
%%abc-edited-by Frances Bennion
%%abc-edited-by Frances Bennion
%%abcx-initial-encoding-date 1997/04/15
%%gracespace 0 6 6
%%humdrum-veritas 3868647213
%%humdrum-veritas-data 985332534
%%linebreak <none>
%%barnumbers 0
L: 1/4
M: 3/4
N: Derived from op17n6-02.krn
Q: "Menuetto"
%%staves [1 2 3 4]
V: 1 clef=bass
V: 2 clef=alto
V: 3
V: 4
K: D
[V:1]z2 z |
[V:2]z2 z |
[V:3]z2 f |
[V:4]z2 a |
[V:1]z2 A,, |
[V:2]z2 G |
[V:3]e d c |
[V:4]g f e |
[V:1]D,3- |
[V:2]F3 |
[V:3]d3- |
[V:4]d d' c' |
[V:1]D,3- |
[V:2]G2 F |
[V:3]d3- |
[V:4]b2 a |
[V:1]D,3 |
[V:2]E A D |
[V:3]d c d |
[V:4]g2 f |
[V:1]G,,3 |
[V:2]G3 |
[V:3]B3 |
[V:4]f/^d/ e/f/ g/e/ |
[V:1]A,,3- |
[V:2]F E D |
[V:3]A G F |
[V:4]c2 d/c//d// |
[V:1]A,, C, D, |
[V:2]C A, A, |
[V:3]E2 D |
[V:4]e G F |
[V:1]A, A,, A,, |
[V:2]A,2 A, |
[V:3]C2 E |
[V:4]E A A |
[V:1]A,, A,, A,, |
[V:2]A, A, A, |
[V:3]F D B, |
[V:4]d c/B/ A/^G/ |
[V:1]A,, A,, A,, |
[V:2]A, A, A, |
[V:3]C2 C/E/ |
[V:4]^G/A/ c/A/ e/c/ |
[V:1]A,, A,, A,, |
[V:2]A, A, A, |
[V:3]F D B, |
[V:4]d c/B/ A/^G/ |
[V:1]A,,2 z |
[V:2]A,2 z |
[V:3]C2 f |
[V:4]A2 a |
[V:1]z2 F, |
[V:2]z2 D |
[V:3]e d a- |
[V:4]g f =c'- |
[V:1]G,2 B,, |
[V:2]D D ^D |
[V:3]a g f- |
[V:4]c' b a- |
[V:1]E,2 F, |
[V:2]B,2 A, |
[V:3]f e ^d |
[V:4]a g f |
[V:1]G,2 z |
[V:2]G,2 z |
[V:3]B2 z |
[V:4]f/^d/ e/f/ g/e/ |
[V:1]z A, A, |
[V:2]z E E |
[V:3]z G G |
[V:4]d3 |
[V:1]A, z2 |
[V:2]E z2 |
[V:3]G z f |
[V:4]c z a |
[V:1]D,2 F, |
[V:2]A,2 D, |
[V:3]e d d |
[V:4]g f d' |
[V:1]G,3 |
[V:2]D, z2 |
[V:3]d b a/g/ |
[V:4]b g' f'/e'/ |
[V:1]A, A, A, |
[V:2]z A, A, |
[V:3]f2 g/e/ |
[V:4]d'2 e'/c'/ |
[V:1]D, D,, z |
[V:2]D z2 |
[V:3]f z2 |
[V:4]d' z (3D/F/A/ |
[V:1]z2 C, |
[V:2]z2 A, |
[V:3]z2 E |
[V:4](3G/F/E/ (3D/C/B,/ (3A,/A/G/ |
[V:1]D, z2 |
[V:2]A, z2 |
[V:3]F z2 |
[V:4](3F/d/c/ (3B/A/G/ (3D/F/A/ |
[V:1]z2 C, |
[V:2]z2 A, |
[V:3]z2 E |
[V:4](3G/F/E/ (3D/C/B,/ (3A,/A/G/ |
[V:1]D, D,, z |
[V:2]A,2 z |
[V:3]F2 z |
[V:4]F2 (3D/F/A/ |
[V:1]z2 ^D, |
[V:2]z2 B, |
[V:3]z2 [FA] |
[V:4](3d/c/B/ (3f/e/d/ (3c/B/A/ |
[V:1]E, z E, |
[V:2]B, z B, |
[V:3]^G z d |
[V:4](3^G/f/^d/ (3e/d'/b/ (3^g/e/=d/ |
[V:1]A, E, E, |
[V:2]A, E D |
[V:3]c C B, |
[V:4](3c/d/e/ A ^G |
[V:1]A, A,, z |
[V:2]C2 z |
[V:3]A,2 z |
[V:4]A2 (3A/f/a/ |
[V:1]z3 |
[V:2]z3 |
[V:3]z3 |
[V:4](3g/e/_B/ (3A/f/a/ (3g/e/B/ |
[V:1]z3 |
[V:2]z3 |
[V:3]z3 |
[V:4](3A/f/a/ (3g/e/_B/ (3A/f/a/ |
[V:1]C,3 |
[V:2]A,3- |
[V:3]E3 |
[V:4](3g/f/e/ (3d/c/B/ (3A/e/G/ |
[V:1]D, F, G, |
[V:2]A,2 G, |
[V:3]F D D |
[V:4](3F/c/d/ (3A/B/=c/ (3B/F/G/ |
[V:1]G,,3 |
[V:2]G,2 B,/G,/ |
[V:3]B,3 |
[V:4](3E/G/F/ (3E/B/A/ (3G/F/E/ |
[V:1]A,, A, z |
[V:2]E,2 z |
[V:3]A,2 z |
[V:4]C2 (3D/F/A/ |
[V:1]z2 C, |
[V:2]z2 A, |
[V:3]z2 E |
[V:4](3G/F/E/ (3D/C/B,/ (3A,/A/G/ |
[V:1]D, z2 |
[V:2]A, z2 |
[V:3]F z2 |
[V:4](3F/d/c/ (3B/A/G/ (3D/F/A/ |
[V:1]z2 C, |
[V:2]z2 A, |
[V:3]z2 E |
[V:4](3G/F/E/ (3D/C/B,/ (3A,/A/G/ |
[V:1]D, z F, |
[V:2]A, z F |
[V:3]F z D |
[V:4](3F/A/d/ (3f/a/c'/ (3d'/a/f/ |
[V:1]G, A, A,, |
[V:2]G F G |
[V:3]D2 C |
[V:4](3b/g/e/ A e |
[V:1]D, D,, z |]
[V:2]F D, z |]
[V:3]D2 z |]
[V:4]d2 z |]

